images/2841560.svg

<?xml version="1.0" encoding="UTF-8"?>
<svg xmlns="http://www.w3.org/2000/svg" xmlns:xlink="http://www.w3.org/1999/xlink" width="300pt" height="300pt" viewBox="0 0 300 300" version="1.1">
<defs>
<g>
<symbol overflow="visible" id="glyph0-0">
<path style="stroke:none;" d="M 0.546875 1.9375 L 0.546875 -7.75 L 6.046875 -7.75 L 6.046875 1.9375 Z M 1.171875 1.328125 L 5.4375 1.328125 L 5.4375 -7.140625 L 1.171875 -7.140625 Z M 1.171875 1.328125 "/>
</symbol>
<symbol overflow="visible" id="glyph0-1">
<path style="stroke:none;" d="M 4.328125 -7.28125 C 3.546875 -7.28125 2.921875 -6.984375 2.453125 -6.390625 C 1.992188 -5.804688 1.765625 -5.007812 1.765625 -4 C 1.765625 -2.988281 1.992188 -2.1875 2.453125 -1.59375 C 2.921875 -1.007812 3.546875 -0.71875 4.328125 -0.71875 C 5.117188 -0.71875 5.742188 -1.007812 6.203125 -1.59375 C 6.660156 -2.1875 6.890625 -2.988281 6.890625 -4 C 6.890625 -5.007812 6.660156 -5.804688 6.203125 -6.390625 C 5.742188 -6.984375 5.117188 -7.28125 4.328125 -7.28125 Z M 4.328125 -8.171875 C 5.453125 -8.171875 6.351562 -7.789062 7.03125 -7.03125 C 7.707031 -6.28125 8.046875 -5.269531 8.046875 -4 C 8.046875 -2.738281 7.707031 -1.726562 7.03125 -0.96875 C 6.351562 -0.21875 5.453125 0.15625 4.328125 0.15625 C 3.203125 0.15625 2.300781 -0.21875 1.625 -0.96875 C 0.957031 -1.71875 0.625 -2.726562 0.625 -4 C 0.625 -5.269531 0.957031 -6.28125 1.625 -7.03125 C 2.300781 -7.789062 3.203125 -8.171875 4.328125 -8.171875 Z M 4.328125 -8.171875 "/>
</symbol>
</g>
</defs>
<g id="surface51353">
<rect x="0" y="0" width="300" height="300" style="fill:rgb(100%,100%,100%);fill-opacity:1;stroke:none;"/>
<path style="fill:none;stroke-width:1.2;stroke-linecap:butt;stroke-linejoin:miter;stroke:rgb(0%,0%,0%);stroke-opacity:1;stroke-miterlimit:10;" d="M 35.25 167.417969 L 55.652344 150.730469 "/>
<path style="fill:none;stroke-width:1.2;stroke-linecap:butt;stroke-linejoin:miter;stroke:rgb(0%,0%,0%);stroke-opacity:1;stroke-miterlimit:10;" d="M 55.652344 150.730469 L 51.402344 124.722656 "/>
<path style="fill:none;stroke-width:1.2;stroke-linecap:butt;stroke-linejoin:miter;stroke:rgb(0%,0%,0%);stroke-opacity:1;stroke-miterlimit:10;" d="M 55.652344 150.730469 L 80.300781 160.058594 "/>
<path style="fill:none;stroke-width:1.2;stroke-linecap:butt;stroke-linejoin:miter;stroke:rgb(0%,0%,0%);stroke-opacity:1;stroke-miterlimit:10;" d="M 80.300781 160.058594 L 100.699219 143.371094 "/>
<path style="fill:none;stroke-width:1.2;stroke-linecap:butt;stroke-linejoin:miter;stroke:rgb(0%,0%,0%);stroke-opacity:1;stroke-miterlimit:10;" d="M 103.761719 142.871094 L 101.636719 129.867188 "/>
<path style="fill:none;stroke-width:1.2;stroke-linecap:butt;stroke-linejoin:miter;stroke:rgb(100%,0%,0%);stroke-opacity:1;stroke-miterlimit:10;" d="M 101.636719 129.867188 L 99.511719 116.863281 "/>
<path style="fill:none;stroke-width:1.2;stroke-linecap:butt;stroke-linejoin:miter;stroke:rgb(0%,0%,0%);stroke-opacity:1;stroke-miterlimit:10;" d="M 97.640625 143.871094 L 95.515625 130.867188 "/>
<path style="fill:none;stroke-width:1.2;stroke-linecap:butt;stroke-linejoin:miter;stroke:rgb(100%,0%,0%);stroke-opacity:1;stroke-miterlimit:10;" d="M 95.515625 130.867188 L 93.390625 117.863281 "/>
<path style="fill:none;stroke-width:1.2;stroke-linecap:butt;stroke-linejoin:miter;stroke:rgb(0%,0%,0%);stroke-opacity:1;stroke-miterlimit:10;" d="M 100.699219 143.371094 L 113.027344 148.035156 "/>
<path style="fill:none;stroke-width:1.2;stroke-linecap:butt;stroke-linejoin:miter;stroke:rgb(100%,0%,0%);stroke-opacity:1;stroke-miterlimit:10;" d="M 113.027344 148.035156 L 125.351562 152.699219 "/>
<path style=" stroke:none;fill-rule:nonzero;fill:rgb(100%,100%,100%);fill-opacity:1;" d="M 92.453125 110.863281 L 101.453125 110.863281 L 101.453125 123.863281 L 92.453125 123.863281 Z M 92.453125 110.863281 "/>
<g style="fill:rgb(100%,0%,0%);fill-opacity:1;">
  <use xlink:href="#glyph0-1" x="92.453125" y="120.764648"/>
</g>
<path style="fill:none;stroke-width:1.2;stroke-linecap:butt;stroke-linejoin:miter;stroke:rgb(100%,0%,0%);stroke-opacity:1;stroke-miterlimit:10;" d="M 125.351562 152.699219 L 135.550781 144.355469 "/>
<path style="fill:none;stroke-width:1.2;stroke-linecap:butt;stroke-linejoin:miter;stroke:rgb(0%,0%,0%);stroke-opacity:1;stroke-miterlimit:10;" d="M 135.550781 144.355469 L 145.75 136.011719 "/>
<path style=" stroke:none;fill-rule:nonzero;fill:rgb(100%,100%,100%);fill-opacity:1;" d="M 121.351562 146.199219 L 130.351562 146.199219 L 130.351562 159.199219 L 121.351562 159.199219 Z M 121.351562 146.199219 "/>
<g style="fill:rgb(100%,0%,0%);fill-opacity:1;">
  <use xlink:href="#glyph0-1" x="121.351562" y="156.100586"/>
</g>
<path style="fill:none;stroke-width:1.2;stroke-linecap:butt;stroke-linejoin:miter;stroke:rgb(0%,0%,0%);stroke-opacity:1;stroke-miterlimit:10;" d="M 145.75 136.011719 L 170.402344 145.335938 "/>
<path style="fill:none;stroke-width:1.2;stroke-linecap:butt;stroke-linejoin:miter;stroke:rgb(0%,0%,0%);stroke-opacity:1;stroke-miterlimit:10;" d="M 141.5 110.003906 L 145.75 136.011719 "/>
<path style="fill:none;stroke-width:1.2;stroke-linecap:butt;stroke-linejoin:miter;stroke:rgb(0%,0%,0%);stroke-opacity:1;stroke-miterlimit:10;" d="M 170.402344 145.335938 L 190.800781 128.652344 "/>
<path style="fill:none;stroke-width:1.2;stroke-linecap:butt;stroke-linejoin:miter;stroke:rgb(0%,0%,0%);stroke-opacity:1;stroke-miterlimit:10;" d="M 170.402344 145.335938 L 172.523438 158.34375 "/>
<path style="fill:none;stroke-width:1.2;stroke-linecap:butt;stroke-linejoin:miter;stroke:rgb(100%,0%,0%);stroke-opacity:1;stroke-miterlimit:10;" d="M 172.523438 158.34375 L 174.648438 171.347656 "/>
<path style="fill:none;stroke-width:1.2;stroke-linecap:butt;stroke-linejoin:miter;stroke:rgb(0%,0%,0%);stroke-opacity:1;stroke-miterlimit:10;" d="M 190.800781 128.652344 L 186.550781 102.644531 "/>
<path style="fill:none;stroke-width:1.2;stroke-linecap:butt;stroke-linejoin:miter;stroke:rgb(0%,0%,0%);stroke-opacity:1;stroke-miterlimit:10;" d="M 196.496094 125.050781 L 193.097656 104.246094 "/>
<path style="fill:none;stroke-width:1.2;stroke-linecap:butt;stroke-linejoin:miter;stroke:rgb(0%,0%,0%);stroke-opacity:1;stroke-miterlimit:10;" d="M 215.449219 137.976562 L 190.800781 128.652344 "/>
<path style="fill:none;stroke-width:1.2;stroke-linecap:butt;stroke-linejoin:miter;stroke:rgb(0%,0%,0%);stroke-opacity:1;stroke-miterlimit:10;" d="M 186.550781 102.644531 L 206.953125 85.957031 "/>
<path style="fill:none;stroke-width:1.2;stroke-linecap:butt;stroke-linejoin:miter;stroke:rgb(0%,0%,0%);stroke-opacity:1;stroke-miterlimit:10;" d="M 186.550781 102.644531 L 174.226562 97.980469 "/>
<path style="fill:none;stroke-width:1.2;stroke-linecap:butt;stroke-linejoin:miter;stroke:rgb(100%,0%,0%);stroke-opacity:1;stroke-miterlimit:10;" d="M 174.226562 97.980469 L 161.902344 93.316406 "/>
<path style="fill:none;stroke-width:1.2;stroke-linecap:butt;stroke-linejoin:miter;stroke:rgb(0%,0%,0%);stroke-opacity:1;stroke-miterlimit:10;" d="M 206.953125 85.957031 L 231.601562 95.28125 "/>
<path style="fill:none;stroke-width:1.2;stroke-linecap:butt;stroke-linejoin:miter;stroke:rgb(0%,0%,0%);stroke-opacity:1;stroke-miterlimit:10;" d="M 207.222656 92.691406 L 226.941406 100.152344 "/>
<path style="fill:none;stroke-width:1.2;stroke-linecap:butt;stroke-linejoin:miter;stroke:rgb(0%,0%,0%);stroke-opacity:1;stroke-miterlimit:10;" d="M 231.601562 95.28125 L 235.851562 121.292969 "/>
<path style="fill:none;stroke-width:1.2;stroke-linecap:butt;stroke-linejoin:miter;stroke:rgb(0%,0%,0%);stroke-opacity:1;stroke-miterlimit:10;" d="M 235.851562 121.292969 L 215.449219 137.976562 "/>
<path style="fill:none;stroke-width:1.2;stroke-linecap:butt;stroke-linejoin:miter;stroke:rgb(0%,0%,0%);stroke-opacity:1;stroke-miterlimit:10;" d="M 237.738281 127.761719 L 221.417969 141.109375 "/>
<path style="fill:none;stroke-width:1.2;stroke-linecap:butt;stroke-linejoin:miter;stroke:rgb(0%,0%,0%);stroke-opacity:1;stroke-miterlimit:10;" d="M 260.5 130.617188 L 235.851562 121.292969 "/>
<path style="fill:none;stroke-width:1.2;stroke-linecap:butt;stroke-linejoin:miter;stroke:rgb(0%,0%,0%);stroke-opacity:1;stroke-miterlimit:10;" d="M 215.449219 137.976562 L 217.574219 150.984375 "/>
<path style="fill:none;stroke-width:1.2;stroke-linecap:butt;stroke-linejoin:miter;stroke:rgb(100%,0%,0%);stroke-opacity:1;stroke-miterlimit:10;" d="M 217.574219 150.984375 L 219.699219 163.988281 "/>
<path style="fill:none;stroke-width:1.2;stroke-linecap:butt;stroke-linejoin:miter;stroke:rgb(100%,0%,0%);stroke-opacity:1;stroke-miterlimit:10;" d="M 219.699219 163.988281 L 232.023438 168.648438 "/>
<path style="fill:none;stroke-width:1.2;stroke-linecap:butt;stroke-linejoin:miter;stroke:rgb(0%,0%,0%);stroke-opacity:1;stroke-miterlimit:10;" d="M 232.023438 168.648438 L 244.347656 173.3125 "/>
<path style=" stroke:none;fill-rule:nonzero;fill:rgb(100%,100%,100%);fill-opacity:1;" d="M 215.699219 157.488281 L 224.699219 157.488281 L 224.699219 170.488281 L 215.699219 170.488281 Z M 215.699219 157.488281 "/>
<g style="fill:rgb(100%,0%,0%);fill-opacity:1;">
  <use xlink:href="#glyph0-1" x="215.699219" y="167.389648"/>
</g>
<path style="fill:none;stroke-width:1.2;stroke-linecap:butt;stroke-linejoin:miter;stroke:rgb(0%,0%,0%);stroke-opacity:1;stroke-miterlimit:10;" d="M 241.289062 173.8125 L 243.414062 186.816406 "/>
<path style="fill:none;stroke-width:1.2;stroke-linecap:butt;stroke-linejoin:miter;stroke:rgb(100%,0%,0%);stroke-opacity:1;stroke-miterlimit:10;" d="M 243.414062 186.816406 L 245.539062 199.820312 "/>
<path style="fill:none;stroke-width:1.2;stroke-linecap:butt;stroke-linejoin:miter;stroke:rgb(0%,0%,0%);stroke-opacity:1;stroke-miterlimit:10;" d="M 247.410156 172.8125 L 249.535156 185.816406 "/>
<path style="fill:none;stroke-width:1.2;stroke-linecap:butt;stroke-linejoin:miter;stroke:rgb(100%,0%,0%);stroke-opacity:1;stroke-miterlimit:10;" d="M 249.535156 185.816406 L 251.660156 198.820312 "/>
<path style="fill:none;stroke-width:1.2;stroke-linecap:butt;stroke-linejoin:miter;stroke:rgb(0%,0%,0%);stroke-opacity:1;stroke-miterlimit:10;" d="M 244.347656 173.3125 L 264.75 156.628906 "/>
<path style=" stroke:none;fill-rule:nonzero;fill:rgb(100%,100%,100%);fill-opacity:1;" d="M 244.597656 192.820312 L 253.597656 192.820312 L 253.597656 205.820312 L 244.597656 205.820312 Z M 244.597656 192.820312 "/>
<g style="fill:rgb(100%,0%,0%);fill-opacity:1;">
  <use xlink:href="#glyph0-1" x="244.597656" y="202.72168"/>
</g>
<path style="fill:none;stroke-width:1.2;stroke-linecap:butt;stroke-linejoin:miter;stroke:rgb(0%,0%,0%);stroke-opacity:1;stroke-miterlimit:10;" d="M 264.75 156.628906 L 260.5 130.617188 "/>
<path style="fill:none;stroke-width:1.2;stroke-linecap:butt;stroke-linejoin:miter;stroke:rgb(0%,0%,0%);stroke-opacity:1;stroke-miterlimit:10;" d="M 258.207031 155.027344 L 254.804688 134.21875 "/>
<path style="fill:none;stroke-width:1.2;stroke-linecap:butt;stroke-linejoin:miter;stroke:rgb(100%,0%,0%);stroke-opacity:1;stroke-miterlimit:10;" d="M 161.902344 93.316406 L 151.703125 101.660156 "/>
<path style="fill:none;stroke-width:1.2;stroke-linecap:butt;stroke-linejoin:miter;stroke:rgb(0%,0%,0%);stroke-opacity:1;stroke-miterlimit:10;" d="M 151.703125 101.660156 L 141.5 110.003906 "/>
<path style=" stroke:none;fill-rule:nonzero;fill:rgb(100%,100%,100%);fill-opacity:1;" d="M 157.902344 86.816406 L 166.902344 86.816406 L 166.902344 99.816406 L 157.902344 99.816406 Z M 157.902344 86.816406 "/>
<g style="fill:rgb(100%,0%,0%);fill-opacity:1;">
  <use xlink:href="#glyph0-1" x="157.902344" y="96.717773"/>
</g>
<path style="fill:none;stroke-width:1.2;stroke-linecap:butt;stroke-linejoin:miter;stroke:rgb(0%,0%,0%);stroke-opacity:1;stroke-miterlimit:10;" d="M 141.5 110.003906 L 128.613281 87.015625 "/>
<path style="fill:none;stroke-width:1.2;stroke-linecap:butt;stroke-linejoin:miter;stroke:rgb(0%,0%,0%);stroke-opacity:1;stroke-miterlimit:10;" d="M 141.5 110.003906 L 116.625 118.703125 "/>
<path style="fill:none;stroke-width:1.2;stroke-linecap:butt;stroke-linejoin:miter;stroke:rgb(100%,0%,0%);stroke-opacity:1;stroke-miterlimit:10;" d="M 174.648438 171.347656 L 164.449219 179.691406 "/>
<path style="fill:none;stroke-width:1.2;stroke-linecap:butt;stroke-linejoin:miter;stroke:rgb(0%,0%,0%);stroke-opacity:1;stroke-miterlimit:10;" d="M 164.449219 179.691406 L 154.25 188.03125 "/>
<path style=" stroke:none;fill-rule:nonzero;fill:rgb(100%,100%,100%);fill-opacity:1;" d="M 170.648438 164.847656 L 179.648438 164.847656 L 179.648438 177.847656 L 170.648438 177.847656 Z M 170.648438 164.847656 "/>
<g style="fill:rgb(100%,0%,0%);fill-opacity:1;">
  <use xlink:href="#glyph0-1" x="170.648438" y="174.749023"/>
</g>
<path style="fill:none;stroke-width:1.2;stroke-linecap:butt;stroke-linejoin:miter;stroke:rgb(0%,0%,0%);stroke-opacity:1;stroke-miterlimit:10;" d="M 155.347656 185.132812 L 143.019531 180.46875 "/>
<path style="fill:none;stroke-width:1.2;stroke-linecap:butt;stroke-linejoin:miter;stroke:rgb(100%,0%,0%);stroke-opacity:1;stroke-miterlimit:10;" d="M 143.019531 180.46875 L 130.695312 175.808594 "/>
<path style="fill:none;stroke-width:1.2;stroke-linecap:butt;stroke-linejoin:miter;stroke:rgb(0%,0%,0%);stroke-opacity:1;stroke-miterlimit:10;" d="M 153.152344 190.933594 L 140.828125 186.269531 "/>
<path style="fill:none;stroke-width:1.2;stroke-linecap:butt;stroke-linejoin:miter;stroke:rgb(100%,0%,0%);stroke-opacity:1;stroke-miterlimit:10;" d="M 140.828125 186.269531 L 128.503906 181.605469 "/>
<path style="fill:none;stroke-width:1.2;stroke-linecap:butt;stroke-linejoin:miter;stroke:rgb(0%,0%,0%);stroke-opacity:1;stroke-miterlimit:10;" d="M 154.25 188.03125 L 158.5 214.042969 "/>
<path style=" stroke:none;fill-rule:nonzero;fill:rgb(100%,100%,100%);fill-opacity:1;" d="M 120.597656 172.207031 L 129.597656 172.207031 L 129.597656 185.207031 L 120.597656 185.207031 Z M 120.597656 172.207031 "/>
<g style="fill:rgb(100%,0%,0%);fill-opacity:1;">
  <use xlink:href="#glyph0-1" x="120.597656" y="182.108398"/>
</g>
</g>
</svg>

<svg xmlns="http://www.w3.org/2000/svg" xmlns:xlink="http://www.w3.org/1999/xlink" width="300pt" height="300pt" viewBox="0 0 300 300"><defs><symbol overflow="visible"><path d="M.547 1.938V-7.75h5.5v9.688zm.625-.61h4.266v-8.47H1.171zm0 0"/></symbol><symbol overflow="visible" id="a"><path d="M4.328-7.28c-.78 0-1.406.296-1.875.89-.46.585-.687 1.382-.687 2.39 0 1.012.226 1.813.687 2.406.47.586 1.094.875 1.875.875.79 0 1.414-.288 1.875-.874.457-.593.688-1.394.688-2.406 0-1.008-.23-1.805-.687-2.39-.46-.594-1.086-.89-1.875-.89zm0-.892c1.125 0 2.024.383 2.703 1.14C7.708-6.28 8.048-5.27 8.048-4c0 1.262-.34 2.273-1.016 3.03C6.353-.22 5.454.157 4.33.157S2.3-.22 1.625-.97c-.668-.75-1-1.757-1-3.03 0-1.27.332-2.28 1-3.03.676-.76 1.578-1.142 2.703-1.142zm0 0"/></symbol></defs><g><path fill="#fff" d="M0 0h300v300H0z"/><path d="M35.25 167.418l20.402-16.688M55.652 150.73l-4.25-26.007M55.652 150.73l24.65 9.33M80.3 160.06l20.4-16.69M103.762 142.87l-2.125-13.003" stroke-width="1.2" stroke="#000" stroke-miterlimit="10" fill="none"/><path d="M101.637 129.867l-2.125-13.004" stroke-width="1.2" stroke="#f00" stroke-miterlimit="10" fill="none"/><path d="M97.64 143.87l-2.124-13.003" stroke-width="1.2" stroke="#000" stroke-miterlimit="10" fill="none"/><path d="M95.516 130.867l-2.125-13.004" stroke-width="1.2" stroke="#f00" stroke-miterlimit="10" fill="none"/><path d="M100.7 143.37l12.327 4.665" stroke-width="1.2" stroke="#000" stroke-miterlimit="10" fill="none"/><path d="M113.027 148.035l12.325 4.664" stroke-width="1.2" stroke="#f00" stroke-miterlimit="10" fill="none"/><path d="M92.453 110.863h9v13h-9zm0 0" fill="#fff"/><use xlink:href="#a" x="92.453" y="120.765" fill="#f00"/><path d="M125.352 152.7l10.2-8.345" stroke-width="1.2" stroke="#f00" stroke-miterlimit="10" fill="none"/><path d="M135.55 144.355l10.2-8.343" stroke-width="1.2" stroke="#000" stroke-miterlimit="10" fill="none"/><path d="M121.352 146.2h9v13h-9zm0 0" fill="#fff"/><use xlink:href="#a" x="121.352" y="156.101" fill="#f00"/><path d="M145.75 136.012l24.652 9.324M141.5 110.004l4.25 26.008M170.402 145.336l20.4-16.684M170.402 145.336l2.12 13.008" stroke-width="1.2" stroke="#000" stroke-miterlimit="10" fill="none"/><path d="M172.523 158.344l2.125 13.004" stroke-width="1.2" stroke="#f00" stroke-miterlimit="10" fill="none"/><path d="M190.8 128.652l-4.25-26.007M196.496 125.05l-3.398-20.804M215.45 137.977l-24.65-9.325M186.55 102.645l20.403-16.688M186.55 102.645l-12.323-4.665" stroke-width="1.2" stroke="#000" stroke-miterlimit="10" fill="none"/><path d="M174.227 97.98l-12.325-4.664" stroke-width="1.2" stroke="#f00" stroke-miterlimit="10" fill="none"/><path d="M206.953 85.957l24.65 9.324M207.223 92.69l19.718 7.462M231.602 95.28l4.25 26.013M235.852 121.293l-20.403 16.684M237.738 127.762l-16.32 13.347M260.5 130.617l-24.648-9.324M215.45 137.977l2.124 13.007" stroke-width="1.2" stroke="#000" stroke-miterlimit="10" fill="none"/><path d="M217.574 150.984l2.125 13.004M219.7 163.988l12.323 4.66" stroke-width="1.2" stroke="#f00" stroke-miterlimit="10" fill="none"/><path d="M232.023 168.648l12.325 4.665" stroke-width="1.2" stroke="#000" stroke-miterlimit="10" fill="none"/><path d="M215.7 157.488h9v13h-9zm0 0" fill="#fff"/><use xlink:href="#a" x="215.699" y="167.39" fill="#f00"/><path d="M241.29 173.813l2.124 13.003" stroke-width="1.2" stroke="#000" stroke-miterlimit="10" fill="none"/><path d="M243.414 186.816l2.125 13.004" stroke-width="1.2" stroke="#f00" stroke-miterlimit="10" fill="none"/><path d="M247.41 172.813l2.125 13.003" stroke-width="1.2" stroke="#000" stroke-miterlimit="10" fill="none"/><path d="M249.535 185.816l2.125 13.004" stroke-width="1.2" stroke="#f00" stroke-miterlimit="10" fill="none"/><path d="M244.348 173.313l20.402-16.684" stroke-width="1.2" stroke="#000" stroke-miterlimit="10" fill="none"/><path d="M244.598 192.82h9v13h-9zm0 0" fill="#fff"/><use xlink:href="#a" x="244.598" y="202.722" fill="#f00"/><path d="M264.75 156.63l-4.25-26.013M258.207 155.027l-3.402-20.808" stroke-width="1.2" stroke="#000" stroke-miterlimit="10" fill="none"/><path d="M161.902 93.316l-10.2 8.344" stroke-width="1.2" stroke="#f00" stroke-miterlimit="10" fill="none"/><path d="M151.703 101.66l-10.203 8.344" stroke-width="1.2" stroke="#000" stroke-miterlimit="10" fill="none"/><path d="M157.902 86.816h9v13h-9zm0 0" fill="#fff"/><use xlink:href="#a" x="157.902" y="96.718" fill="#f00"/><path d="M141.5 110.004l-12.887-22.988M141.5 110.004l-24.875 8.7" stroke-width="1.2" stroke="#000" stroke-miterlimit="10" fill="none"/><path d="M174.648 171.348l-10.2 8.343" stroke-width="1.2" stroke="#f00" stroke-miterlimit="10" fill="none"/><path d="M164.45 179.69l-10.2 8.34" stroke-width="1.2" stroke="#000" stroke-miterlimit="10" fill="none"/><path d="M170.648 164.848h9v13h-9zm0 0" fill="#fff"/><use xlink:href="#a" x="170.648" y="174.749" fill="#f00"/><path d="M155.348 185.133l-12.328-4.664" stroke-width="1.2" stroke="#000" stroke-miterlimit="10" fill="none"/><path d="M143.02 180.47l-12.325-4.66" stroke-width="1.2" stroke="#f00" stroke-miterlimit="10" fill="none"/><path d="M153.152 190.934l-12.324-4.664" stroke-width="1.2" stroke="#000" stroke-miterlimit="10" fill="none"/><path d="M140.828 186.27l-12.324-4.665" stroke-width="1.2" stroke="#f00" stroke-miterlimit="10" fill="none"/><path d="M154.25 188.03l4.25 26.013" stroke-width="1.2" stroke="#000" stroke-miterlimit="10" fill="none"/><path d="M120.598 172.207h9v13h-9zm0 0" fill="#fff"/><use xlink:href="#a" x="120.598" y="182.108" fill="#f00"/></g></svg>
